X: 32840
T: Port Dreoilin An Daingin
R: jig
M: 6/8
K: Eminor
D|:B,2 E EDB,|GAG GAB|ABA AFA|d3 d2e|
dBG GAB|AFE DEF|G2E FED|1 ~E3 E2D:|2 ~E3 E3||
|:B2 e edB|ded d2 f|efe edB|ded d2 e|
dBG GAB|AFE DEF|G2 E FED|1 ~E3 E3:|2 ~E3 E2||

